src/assets/icons/mask.svg

<svg width="616" height="348" viewBox="0 0 616 348" fill="none" xmlns="http://www.w3.org/2000/svg">
<path fill-rule="evenodd" clip-rule="evenodd" d="M4.87057 0.709955C4.87057 1.07202 6.0743 2.6205 7.54661 4.15196L10.2226 6.93601L5.76096 4.44124C3.3068 3.06954 1.00833 2.23007 0.652177 2.57512C-0.408504 3.60555 -0.0912729 44.1155 0.998601 46.9015C1.67685 48.6334 1.67588 49.8131 0.994709 50.6091C0.322295 51.3966 0.0770738 85.6853 0.244447 155.619L0.491615 259.46L4.87057 260.558C9.27191 261.662 9.17169 261.87 3.41092 263.572L0.491615 264.434L0.2172 304.425C-0.0328867 340.848 0.0887511 344.573 1.58441 346.178C2.97011 347.665 4.68958 347.94 12.6106 347.94H21.9952L23.2272 344.632C24.7783 340.465 26.4559 340.262 25.2376 344.389C24.7403 346.075 24.3326 347.564 24.3326 347.698C24.3326 347.832 28.2737 347.94 33.0905 347.94C38.9175 347.94 41.8484 347.585 41.8484 346.88C41.8484 346.118 42.2367 346.132 43.2254 346.928C44.2413 347.748 52.9749 347.93 76.5541 347.624C116.711 347.103 130.155 347.099 163.294 347.599L189.861 348L188.705 345.844L187.55 343.686L189.934 345.813C191.742 347.427 193.493 347.94 197.184 347.94C201.839 347.94 202.127 347.787 203.843 344.395L205.635 340.85L207.185 344.391L208.735 347.931L224.597 347.936C235.843 347.94 241.222 347.575 243.086 346.682C244.531 345.99 247.465 345.589 249.606 345.792C251.747 345.994 255.907 346.391 258.85 346.676C261.794 346.959 277.582 347.371 293.936 347.592L323.67 347.992L325.257 344.894L326.843 341.796L326.905 344.855L326.967 347.914L411.763 347.92L496.557 347.924L492.287 344.976C485.345 340.181 485.607 340.09 495.801 343.754C501.153 345.678 506.298 347.197 507.234 347.13C508.171 347.063 511.018 347.057 513.56 347.114C516.101 347.173 530.991 347.395 546.645 347.608C571.715 347.95 575.108 347.824 575.108 346.551C575.108 345.755 575.546 345.104 576.081 345.104C576.617 345.104 577.055 345.743 577.055 346.522C577.055 348.282 583.533 348.478 587.253 346.832C589.169 345.984 590.026 345.984 590.899 346.832C592.129 348.026 611.113 348.451 611.113 347.283C611.113 346.921 609.908 345.36 608.437 343.811L605.761 340.997L610.255 343.49C612.727 344.861 615.026 345.715 615.364 345.386C615.702 345.058 615.979 337.893 615.979 329.464C615.979 317.981 615.613 313.288 614.519 310.745C612.697 306.51 612.697 306.008 614.519 306.687C615.736 307.141 615.979 306.059 615.979 300.171C615.979 295.422 615.607 293.11 614.843 293.11C614.219 293.11 613.994 292.833 614.342 292.495C614.69 292.156 614.247 291.361 613.355 290.729C611.877 289.679 611.922 289.481 613.868 288.47L616 287.361L615.966 181.838L615.932 76.3159L613.226 78.8343C609.047 82.7235 608.711 81.8207 612.528 76.9626L615.979 72.5724V55.1959V37.8195L613.303 36.7154L610.627 35.6112L613.303 35.2586L615.979 34.905V26.8318C615.979 20.0149 615.75 18.8426 614.507 19.3059C613.195 19.7956 613.195 19.5573 614.507 17.0909C616.283 13.7548 616.491 2.81997 614.811 1.18736C614.057 0.454712 610.161 0.0529394 603.816 0.0529394H593.988L592.757 3.36165C592.079 5.18144 591.09 6.67037 590.557 6.67037C590.025 6.67037 589.848 6.26481 590.164 5.7685C590.479 5.2722 590.458 3.78611 590.117 2.46641L589.498 0.0652289L544.595 0.402718C490.675 0.807326 488.563 0.807326 444.469 0.397046C411.951 0.0935893 409.678 0.179616 409.637 1.71675C409.613 2.62145 408.988 4.63787 408.25 6.19769C406.93 8.98268 406.915 8.95243 407.453 4.54334L408 0.0529394H391.762C379.43 0.0529394 374.865 0.384756 372.778 1.43315C371.267 2.19226 369.814 2.60254 369.548 2.3454C368.625 1.44827 351.599 0.734534 322.398 0.368685L293.013 0L288.951 5.22588C286.718 8.09973 284.716 10.4518 284.504 10.4518C284.292 10.4518 285.22 8.3389 286.567 5.75622C287.914 3.17447 289.016 0.825288 289.016 0.536011C289.016 0.13613 115.002 0.531285 103.154 0.958581C101.816 1.00679 87.2553 0.773293 70.7982 0.440531C43.6409 -0.10966 40.8753 -0.024579 40.8753 1.36224C40.8753 2.20171 40.4375 2.88898 39.9022 2.88898C39.367 2.88898 38.9291 2.25087 38.9291 1.47096C38.9291 -0.240118 32.7344 -0.487799 28.552 1.0569C26.633 1.76591 25.731 1.76591 25.4877 1.0569C25.1062 -0.0567207 4.87057 -0.397046 4.87057 0.709955Z" fill="black"/>
</svg>

<svg width="292" height="164" viewBox="0 0 292 164" fill="none" xmlns="http://www.w3.org/2000/svg">
  <path fill-rule="evenodd" clip-rule="evenodd" d="M4.87.71c0 .362 1.204 1.91 2.677 3.442l2.676 2.784L5.76 4.441C3.307 3.07 1.008 2.231.652 2.575-.408 3.605-.09 44.115 1 46.902c.678 1.731.677 2.911-.004 3.707-.673.788-.918 35.076-.75 105.01L.491 259.46l4.379 1.098c4.4 1.104 4.3 1.312-1.46 3.014l-2.92.862-.274 39.991c-.25 36.423-.128 40.148 1.367 41.753 1.386 1.487 3.106 1.762 11.027 1.762h9.384l1.232-3.308c1.551-4.167 3.229-4.37 2.01-.243-.497 1.686-.904 3.175-.904 3.309 0 .134 3.94.242 8.758.242 5.826 0 8.757-.355 8.757-1.06 0-.762.389-.748 1.377.048 1.016.82 9.75 1.002 33.33.696 40.156-.521 53.6-.525 86.739-.025l26.567.401-1.156-2.156-1.155-2.158 2.384 2.127c1.808 1.614 3.559 2.127 7.25 2.127 4.655 0 4.943-.153 6.659-3.545l1.792-3.545 1.55 3.541 1.55 3.54 15.862.005c11.246.004 16.625-.361 18.489-1.254 1.445-.692 4.379-1.093 6.52-.89 2.141.202 6.301.599 9.244.884 2.944.283 18.732.695 35.086.916l29.734.4 1.587-3.098 1.586-3.098.062 3.059.062 3.059 84.796.006 84.794.004-4.27-2.948c-6.942-4.795-6.68-4.886 3.514-1.222 5.352 1.924 10.497 3.443 11.433 3.376.937-.067 3.784-.073 6.326-.016 2.541.059 17.431.281 33.085.494 25.07.342 28.463.216 28.463-1.057 0-.796.438-1.447.973-1.447.536 0 .974.639.974 1.418 0 1.76 6.478 1.956 10.198.31 1.916-.848 2.773-.848 3.646 0 1.23 1.194 20.214 1.619 20.214.451 0-.362-1.205-1.923-2.676-3.472l-2.676-2.814 4.494 2.493c2.472 1.371 4.771 2.225 5.109 1.896.338-.328.615-7.493.615-15.922 0-11.483-.366-16.176-1.46-18.719-1.822-4.235-1.822-4.737 0-4.058 1.217.454 1.46-.628 1.46-6.516 0-4.749-.372-7.061-1.136-7.061-.624 0-.849-.277-.501-.615.348-.339-.095-1.134-.987-1.766-1.478-1.05-1.433-1.248.513-2.259l2.132-1.109-.034-105.523-.034-105.522-2.706 2.518c-4.179 3.89-4.515 2.987-.698-1.871l3.451-4.39V37.818l-2.676-1.104-2.676-1.104 2.676-.352 2.676-.354v-8.073c0-6.817-.229-7.99-1.472-7.526-1.312.49-1.312.251 0-2.215 1.776-3.336 1.984-14.271.304-15.904-.754-.732-4.65-1.134-10.995-1.134h-9.828l-1.231 3.309c-.678 1.82-1.667 3.308-2.2 3.308-.532 0-.709-.405-.393-.901.315-.497.294-1.983-.047-3.303l-.619-2.4-44.903.337c-53.92.404-56.032.404-100.126-.006-32.518-.303-34.791-.217-34.832 1.32-.024.904-.649 2.92-1.387 4.48-1.32 2.786-1.335 2.755-.797-1.654L408 .053h-16.238c-12.332 0-16.897.332-18.984 1.38-1.511.76-2.964 1.17-3.23.912-.923-.897-17.949-1.61-47.15-1.976L293.013 0l-4.062 5.226c-2.233 2.874-4.235 5.226-4.447 5.226-.212 0 .716-2.113 2.063-4.696 1.347-2.582 2.449-4.93 2.449-5.22 0-.4-174.014-.005-185.862.423-1.338.048-15.899-.186-32.356-.518-27.157-.55-29.923-.466-29.923.921 0 .84-.438 1.527-.973 1.527-.535 0-.973-.638-.973-1.418 0-1.711-6.195-1.959-10.377-.414-1.919.709-2.821.709-3.064 0C25.106-.057 4.87-.397 4.87.71Z" fill="#000"/>
</svg>
